X:1
T:D minor             Amos Pilsbury, 1799
T:Joseph Hart, 1759               87. 87.
T:Hadley
T:Transcribed from The United States Sacred Harmony, 1799.
%%score [ 1 2 3 4 ]
L:1/8
Q:1/4=130
M:4/4
K:F
V:1 treble nm="Tr." snm="Tr."
V:2 treble nm="C." snm="C."
V:3 treble-8 nm="T." snm="T."
V:4 bass nm="B." snm="B."
V:1
"^1. The  chief concern of  lost  man – kind  Should be ___  to  gain  God's  favor;     What  safe    –    ty   can _____  the      sin      –      ner\n2. This Sa –vior must be one         that  can  From sin ___  and death re–lease  us;     Make  up          the   breach __  'twixt  God ___  and" A4 A2 A2 | %1
 A4 d4 | (c3 B A2) B2 | c6 d2 | A4- A2 G2 | (c3 B) A4 | A4 A4- | A4 A4 |: d6 d2 | (c3 d c2) d>e | %10
 (f3 e d2) G2 | %11
"^1. find,  Be–fore ___ he    find       a       Savior?  Before    he       find        a             Savior?     What    Savior?\n2. man, Which none can   do,        but   Je–sus. Which none can do,      but          Je – sus.    Make   Je–sus." !fermata!A6 A2 | %12
 (F3 G A2) B2 | A4 (A2 d2) | c4 c2 A2 | d4 (c2 A2) | (d2 B2) A4 |1 A4 A4- | A4 A4 :|2 A4 A4- | %20
 A8 |] %21
V:2
 A4 A2 A2 | F4 F4 | (A3 B A2) G2 | A6 A2 | (F3 E D2) G2 | [FA]4 [^CA]4 | [DA]4 [DA]4- | [DA]4 A4 |: %8
 A6 A2 | A6 G2 | A6 G2 | !fermata!F6 F2 | (F3 G A2) G2 | F4 G4 | E4 E2 E2 | (F2 A2) (A2 F2) | %16
 (D2 F2) (E2 ^C2) |1 D4 D4- | D4 A4 :|2 D4 D4- | D8 |] %21
V:3
"^3. What-e'er  we  judge  ourselves,  we must  Or  stand, __  or    fall      by  his  doom;  And  they        that  in _____  this     Je       –       sus\n4. Mer–cy  and love, from Je      –  sus   felt,  Can heal ___   a  woun–ded  spi – rit;      Mer – cy,         that  tri     –     umphs  o       –       ver" d4 d>e fe | %1
 d4 A4 | (c3 d c2) B2 | A6 A2 | (d3 c d2) e2 | f4 e4 | d4 d4- | d4 d4 |: A6 G2 | (F3 E F2) G2 | %10
 (A2 de f2) ed | %11
"^3. trust, Have found  e  –  ter  –  nal  wisdom. Have  found  e – ter  –    nal ___  wisdom.   And      wisdom.\n4. guilt, And love, that  seeks      no  me –  rit. And   love,  that  seeks    no ___   me –rit.   Mer–     me–rit." !fermata!^c6 d2 | %12
 (A3 B c2) B2 | (A2 d2) (^c2 d2) | e4 e2 e2 | (f2 d2) (e2 c2) | %16
"^____________________________________________\nEdited by B. C. Johnston, 2017\n   1. Measure 11, \nBass\n: grace eighth-note converted to normal eighth-note.\n   2. Measure 12, Bass: first note C-A, the C eliminated (C# in Tenor)." (A2 d2) (^c2 e2) |1 %17
 d4 d4- | d4 d4 :|2 d4 d4- | d8 |] %21
V:4
 D,4 D,2 A,,2 | D,4 D,4 | (F,3 G, A,2) G,2 | A,6 D,2 | (D,3 E, F,2) G,2 | A,4 A,,4 | D,4 D,4- | %7
 D,4 D,4 |: (D,3 E, F,2) G,2 | A,6 G,2 | (F,2 D,E, F,2) G,2 | !fermata!A,6 D,2 | (D,3 E, F,2) E,2 | %13
 D,4 E,4 | A,,4 A,,2 A,,2 | D,4 C,4 | (F,2 G,2 A,2) A,,2 |1 D,4 D,4- | D,4 D,4 :|2 D,4 D,4- | %20
 D,8 |] %21

